src/widgets/widget-container.svg

<?xml version="1.0" encoding="UTF-8"?>
<svg xmlns="http://www.w3.org/2000/svg" xmlns:xlink="http://www.w3.org/1999/xlink" width="24pt" height="24pt" viewBox="0 0 24 24" version="1.1">
<g id="surface1">
<path style=" stroke:none;fill-rule:nonzero;fill:rgb(0%,0%,0%);fill-opacity:1;" d="M 1.527344 18.6875 L 0 18.6875 L 0 16.058594 L 1.527344 16.058594 Z M 1.527344 21.429688 L 0 21.429688 L 0 23.828125 L 2.289062 23.828125 L 2.289062 22.230469 L 1.527344 22.230469 Z M 10.582031 23.714844 L 13.417969 23.714844 L 13.417969 22.113281 L 10.582031 22.113281 Z M 0 2.6875 L 1.527344 2.6875 L 1.527344 1.886719 L 2.289062 1.886719 L 2.289062 0.285156 L 0 0.285156 Z M 13.417969 0.285156 L 10.582031 0.285156 L 10.582031 1.886719 L 13.417969 1.886719 Z M 1.527344 10.6875 L 0 10.6875 L 0 13.3125 L 1.527344 13.3125 Z M 7.855469 0.285156 L 5.019531 0.285156 L 5.019531 1.886719 L 7.855469 1.886719 Z M 1.527344 5.3125 L 0 5.3125 L 0 8.058594 L 1.527344 8.058594 Z M 5.019531 23.714844 L 7.855469 23.714844 L 7.855469 22.113281 L 5.019531 22.113281 Z M 22.472656 18.6875 L 24 18.6875 L 24 16.058594 L 22.472656 16.058594 Z M 22.472656 13.3125 L 24 13.3125 L 24 10.6875 L 22.472656 10.6875 Z M 22.472656 8.058594 L 24 8.058594 L 24 5.3125 L 22.472656 5.3125 Z M 21.710938 0.285156 L 21.710938 1.886719 L 22.472656 1.886719 L 22.472656 2.6875 L 24 2.6875 L 24 0.285156 Z M 22.472656 22.230469 L 21.710938 22.230469 L 21.710938 23.828125 L 24 23.828125 L 24 21.429688 L 22.472656 21.429688 Z M 5.019531 8.058594 L 18.980469 8.058594 L 18.980469 5.3125 L 5.019531 5.3125 Z M 16.144531 1.886719 L 18.980469 1.886719 L 18.980469 0.285156 L 16.144531 0.285156 Z M 16.144531 23.714844 L 18.980469 23.714844 L 18.980469 22.113281 L 16.144531 22.113281 Z M 16.144531 23.714844 "/>
</g>
</svg>

<?xml version="1.0" encoding="utf-8"?>
<!-- Generator: Adobe Illustrator 21.1.0, SVG Export Plug-In . SVG Version: 6.00 Build 0)  -->
<svg version="1.1" id="Layer_1" xmlns="http://www.w3.org/2000/svg" xmlns:xlink="http://www.w3.org/1999/xlink" x="0px" y="0px"
	 viewBox="0 0 24 24" style="enable-background:new 0 0 24 24;" xml:space="preserve">
<g id="surface1">
	<path d="M1.5,18.7H0v-2.6h1.5V18.7z M1.5,21.4H0v2.4h2.3v-1.6H1.5V21.4z M10.6,23.7h2.8v-1.6h-2.8V23.7z M0,2.7h1.5V1.9h0.8V0.3H0
		V2.7z M13.4,0.3h-2.8v1.6h2.8V0.3z M1.5,10.7H0v2.6h1.5V10.7z M7.9,0.3H5v1.6h2.8V0.3z M1.5,5.3H0v2.7h1.5V5.3z M5,23.7h2.8v-1.6H5
		V23.7z M22.5,18.7H24v-2.6h-1.5V18.7z M22.5,13.3H24v-2.6h-1.5V13.3z M22.5,8.1H24V5.3h-1.5V8.1z M21.7,0.3v1.6h0.8v0.8H24V0.3
		H21.7z M22.5,22.2h-0.8v1.6H24v-2.4h-1.5V22.2z M5,8.1h14V5.3H5V8.1z M16.1,1.9H19V0.3h-2.8V1.9z M16.1,23.7H19v-1.6h-2.8V23.7z"/>
</g>
</svg>
